X:1
T:Bridgwater, 10.9.10.9
T:Bridgwater, 10.9.10.9
T:Adapted from an English traditional melody
T:Public Domain Courtesy of the Cyber Hymnal™
C:Adapted from an English traditional melody
Z:Public Domain
Z:Courtesy of the Cyber Hymnal™
%%score ( 1 2 ) ( 3 4 )
L:1/8
Q:1/4=115
M:4/4
K:G
V:1 treble 
V:2 treble 
V:3 bass 
V:4 bass 
V:1
 [DB]4 [B,B]2 [CA]2 | [DG]2 [CE]2 [B,D]4 | [DA]4 [DG]2 [DA]2 | [DB]8 | [GB]4 [FA]2 [DG]2 | %5
 [CE]2 [B,D]2 [A,C]4 | D4 [EG]4 | [DG]8 | [GB]4 [GB]2 [Gc]2 | [Gd]2 [Fc]2 [GB]4 | %10
 [GB]4 [FA]2 [EG]2 | [FA]8 | [GB]4 [FA]2 [DG]2 | [CE]2 [B,D]2 [A,C]4 | D4 [EG]4 | [DG]8 |] %16
V:2
 x8 | x8 | x8 | x8 | x8 | x8 | D4 x4 | x8 | x8 | x8 | x8 | x8 | x8 | x8 | D4 x4 | x8 |] %16
V:3
 [G,,G,]4 [G,,D,]2 [A,,F,]2 | [B,,G,]2 [C,G,]2 G,4 | [D,F,]4 [D,E,]2 [D,F,]2 | [G,,G,]8 | %4
 [G,,D]4 [A,,C]2 [B,,D]2 | [C,G,]2 [D,G,]2 [E,G,]4 | [D,B,]4 (B,2 A,2) | [G,,B,]8 | %8
 [G,D]4 [G,D]2 [A,D]2 | [B,D]2 [G,D]2 [E,D]4 | [E,D]4 [A,,C]2 [A,,C]2 | [D,A,]8 | %12
 [G,,G,]4 [A,,C]2 [B,,D]2 | [C,G,]2 [D,G,]2 [E,G,]4 | [D,B,]4 (B,2 A,2) | [G,,B,]8 |] %16
V:4
 x8 | x4 G,4 | x8 | x8 | x8 | x8 | x4 C,4 | x8 | x8 | x8 | x8 | x8 | x8 | x8 | x4 C,4 | x8 |] %16

